packages/bezier-icons/icons/channel-filled.svg

<svg width="24" height="24" viewBox="0 0 24 24" fill="none" xmlns="http://www.w3.org/2000/svg">
<path fill-rule="evenodd" clip-rule="evenodd" d="M21.9969 12.006C21.9969 13.3767 21.7209 14.68 21.2211 15.8698V15.8729C20.9114 16.6119 20.8562 17.4338 21.0494 18.2127L21.5922 20.3869C21.7761 21.1167 21.1138 21.7821 20.3809 21.5981L18.2067 21.0554C17.4278 20.8622 16.606 20.9174 15.8669 21.2271C14.6771 21.7269 13.3738 22.0029 12.0031 22.0029C6.49862 22.0029 2 17.5104 2 12.006C1.99694 6.48008 6.47716 2.00293 12.0031 2.00293C17.5075 2.00293 21.9969 6.50155 21.9969 12.006ZM17.863 14.0546C16.7376 16.1429 14.5297 17.5596 11.9937 17.5596H11.9875C9.4515 17.5596 7.24359 16.1398 6.11817 14.0546C5.99244 13.8215 6.0783 13.5302 6.30523 13.3922L8.09609 12.3189C8.35061 12.1687 8.66953 12.2699 8.80446 12.5305C9.39937 13.6866 10.6015 14.4778 11.9906 14.4778C13.3797 14.4778 14.5818 13.6866 15.1767 12.5305C15.3117 12.2699 15.6337 12.1687 15.8851 12.3189L17.676 13.3922C17.906 13.5302 17.9888 13.8215 17.863 14.0546Z" fill="#313234"/>
</svg>

<svg xmlns="http://www.w3.org/2000/svg" width="24" height="24" fill="none" viewBox="0 0 24 24"><path fill="#313234" fill-rule="evenodd" d="M21.997 12.006c0 1.37-.276 2.674-.776 3.864v.003a3.73 3.73 0 0 0-.172 2.34l.543 2.174a.998.998 0 0 1-1.211 1.211l-2.174-.543a3.73 3.73 0 0 0-2.34.172c-1.19.5-2.493.776-3.864.776C6.5 22.003 2 17.51 2 12.006 1.997 6.48 6.477 2.003 12.003 2.003c5.505 0 9.994 4.499 9.994 10.003m-4.134 2.049a6.66 6.66 0 0 1-5.87 3.505h-.005a6.67 6.67 0 0 1-5.87-3.505.5.5 0 0 1 .187-.663l1.791-1.073a.506.506 0 0 1 .708.211 3.58 3.58 0 0 0 6.373 0 .507.507 0 0 1 .708-.211l1.791 1.073c.23.138.313.43.187.663" clip-rule="evenodd"/></svg>
